Icons/Colored/RotateLeft2.svg

<svg xmlns="http://www.w3.org/2000/svg" xml:space="preserve" fill-rule="evenodd" stroke-linejoin="round" stroke-miterlimit="2" clip-rule="evenodd" viewBox="0 0 64 64">
  <g id="blue">
    <path fill="#73a7c7" fill-rule="nonzero" d="M33.508 53.539s8.445-.484 14.472-3.762c4.633-2.519 7.215-7.343 7.239-10.906.058-8.336-.344-17.437-2.184-20.258-3.656-5.593-14.414-4.109-14.414-4.109V8.535l-9.949 8.336 9.949 10.317v-6.586s6.703-1.637 8.957 2.433c1.063 1.918 1.32 9.035 1.297 16.016-.023 7.816-15.191 7.59-15.191 7.59l-.176 6.898Z"/>
  </g>
  <g id="brown">
    <path fill="#893d00" d="M30.371 44.477v10.652c0 .555-.449 1.004-1.008 1.004H18.711a1.003 1.003 0 0 1-1.004-1.004V44.477c0-.555.449-1.008 1.004-1.008h10.652c.559 0 1.008.453 1.008 1.008ZM9.477 17.523a1.007 1.007 0 0 1 .003-1.414c1.672-1.668 5.864-5.851 7.543-7.531a1.02 1.02 0 0 1 .711-.293c.27 0 .524.11.711.301 1.672 1.687 5.832 5.898 7.493 7.578a1.008 1.008 0 0 1-.004 1.414 13416.1 13416.1 0 0 1-7.543 7.531 1.002 1.002 0 0 1-1.422-.004c-1.668-1.691-5.832-5.902-7.492-7.582Z"/>
  </g>
  <g id="orange">
    <path fill="#ffd49b" d="M32.371 44.477v10.652a3.006 3.006 0 0 1-3.008 3.004H18.711a3.003 3.003 0 0 1-3.004-3.004V44.477a3.006 3.006 0 0 1 3.004-3.008h10.652a3.009 3.009 0 0 1 3.008 3.008Zm-2 0c0-.555-.449-1.008-1.008-1.008H18.711c-.555 0-1.004.453-1.004 1.008v10.652c0 .555.449 1.004 1.004 1.004h10.652c.559 0 1.008-.449 1.008-1.004V44.477ZM8.055 18.93a3.005 3.005 0 0 1 .011-4.235l7.547-7.531a2.986 2.986 0 0 1 2.129-.879 3.005 3.005 0 0 1 2.129.895l7.488 7.582a2.999 2.999 0 0 1-.015 4.234l-7.543 7.531a3.001 3.001 0 0 1-2.129.875 3.02 3.02 0 0 1-2.129-.89L8.055 18.93Zm1.422-1.407 7.492 7.582a1.002 1.002 0 0 0 1.422.004l7.543-7.531c.386-.387.39-1.019.004-1.414l-7.493-7.578a.993.993 0 0 0-.711-.301 1.02 1.02 0 0 0-.711.293L9.48 16.109a1.007 1.007 0 0 0-.003 1.414Z"/>
  </g>
</svg>

<?xml version="1.0" encoding="UTF-8" standalone="no"?>
<!DOCTYPE svg PUBLIC "-//W3C//DTD SVG 1.1//EN" "http://www.w3.org/Graphics/SVG/1.1/DTD/svg11.dtd">
<svg width="100%" height="100%" viewBox="0 0 64 64" version="1.1" xmlns="http://www.w3.org/2000/svg" xmlns:xlink="http://www.w3.org/1999/xlink" xml:space="preserve" xmlns:serif="http://www.serif.com/" style="fill-rule:evenodd;clip-rule:evenodd;stroke-linejoin:round;stroke-miterlimit:2;">
    <g id="surface1">
        <path d="M33.508,53.539C33.508,53.539 41.953,53.055 47.98,49.777C52.613,47.258 55.195,42.434 55.219,38.871C55.277,30.535 54.875,21.434 53.035,18.613C49.379,13.02 38.621,14.504 38.621,14.504L38.621,8.535L28.672,16.871L38.621,27.188L38.621,20.602C38.621,20.602 45.324,18.965 47.578,23.035C48.641,24.953 48.898,32.07 48.875,39.051C48.852,46.867 33.684,46.641 33.684,46.641L33.508,53.539Z" style="fill:#73a7c7;fill-rule:nonzero;"/>
        <path d="M30.371,44.477C30.371,43.922 29.922,43.469 29.363,43.469L18.711,43.469C18.156,43.469 17.707,43.922 17.707,44.477L17.707,55.129C17.707,55.684 18.156,56.133 18.711,56.133L29.363,56.133C29.922,56.133 30.371,55.684 30.371,55.129L30.371,44.477Z" style="fill:#893d00;"/>
        <path d="M32.371,44.477L32.371,55.129C32.371,56.789 31.023,58.133 29.363,58.133L18.711,58.133C17.051,58.133 15.707,56.789 15.707,55.129L15.707,44.477C15.707,42.816 17.051,41.469 18.711,41.469L29.363,41.469C31.023,41.469 32.371,42.816 32.371,44.477ZM30.371,44.477C30.371,43.922 29.922,43.469 29.363,43.469L18.711,43.469C18.156,43.469 17.707,43.922 17.707,44.477L17.707,55.129C17.707,55.684 18.156,56.133 18.711,56.133L29.363,56.133C29.922,56.133 30.371,55.684 30.371,55.129L30.371,44.477Z" style="fill:#ffd49b;"/>
        <path d="M9.477,17.523C9.09,17.133 9.094,16.496 9.48,16.109C11.152,14.441 15.344,10.258 17.023,8.578C17.215,8.391 17.469,8.285 17.734,8.285C18.004,8.285 18.258,8.395 18.445,8.586C20.117,10.273 24.277,14.484 25.938,16.164C26.324,16.559 26.32,17.191 25.934,17.578C24.262,19.25 20.07,23.434 18.391,25.109C18.199,25.297 17.945,25.402 17.68,25.402C17.41,25.402 17.156,25.293 16.969,25.105C15.301,23.414 11.137,19.203 9.477,17.523Z" style="fill:#893d00;"/>
        <path d="M8.055,18.93C6.895,17.754 6.898,15.863 8.066,14.695L15.613,7.164C16.176,6.598 16.945,6.281 17.742,6.285C18.543,6.289 19.309,6.609 19.871,7.18L27.359,14.762C28.52,15.938 28.516,17.828 27.344,18.996L19.801,26.527C19.234,27.09 18.469,27.406 17.672,27.402C16.871,27.398 16.105,27.078 15.543,26.512L8.055,18.93ZM9.477,17.523L16.969,25.105C17.156,25.293 17.41,25.402 17.68,25.402C17.945,25.402 18.199,25.297 18.391,25.109L25.934,17.578C26.32,17.191 26.324,16.559 25.938,16.164L18.445,8.586C18.258,8.395 18.004,8.285 17.734,8.285C17.469,8.285 17.215,8.391 17.023,8.578L9.48,16.109C9.094,16.496 9.09,17.133 9.477,17.523Z" style="fill:#ffd49b;"/>
    </g>
</svg>
